icon-svg/apple-airpods.svg

<svg xmlns="http://www.w3.org/2000/svg" viewBox="0 0 24 24"><path fill="#44739e" d="M13.915 2.049a9.6 9.6 0 0 0-2.862.851 2.12 2.12 0 0 0-1.167 1.9v1.448a2.11 2.11 0 0 0 1.167 1.901 9.6 9.6 0 0 0 3.283.929v3.72a.436.436 0 0 0 .436.436h.52v4.486c0 .514 1.147.585 1.177.036v-4.527h.556a.436.436 0 0 0 .436-.436V7.486a3.54 3.54 0 0 0-3.546-5.437m-1.05 4.13a.45.45 0 0 1-.192.371.6.6 0 0 1-.985-.456V4.996a.6.6 0 0 1 .985-.456.45.45 0 0 1 .192.371Zm2.401-.048h-.343a.6.6 0 0 1-.455-.986.45.45 0 0 1 .37-.191h.343a.6.6 0 0 1 .455.986.45.45 0 0 1-.369.191Zm1.018 5.694a.23.23 0 0 1-.228.227h-.3a.24.24 0 0 1-.24-.24V8.93a3.6 3.6 0 0 0 .772-.337Zm-3.337-2.534a9.6 9.6 0 0 0-2.862-.851 3.54 3.54 0 0 0-3.546 5.436v5.307a.436.436 0 0 0 .436.437h.556v1.97c.03.548 1.177.537 1.177.024V19.62h.52a.436.436 0 0 0 .436-.437V15.47a9.6 9.6 0 0 0 3.283-.929 2.12 2.12 0 0 0 1.167-1.9v-1.443a2.11 2.11 0 0 0-1.167-1.907m-4.46 8.908a.24.24 0 0 1-.24.241h-.3a.23.23 0 0 1-.228-.228v-3.229a3.5 3.5 0 0 0 .772.338Zm.589-5.68h-.343a.45.45 0 0 1-.37-.191.6.6 0 0 1 .455-.985h.343a.45.45 0 0 1 .37.191.6.6 0 0 1-.455.988Zm3.236-.037a.6.6 0 0 1-.985.456.45.45 0 0 1-.192-.37v-1.27a.45.45 0 0 1 .192-.37.6.6 0 0 1 .985.455Z"/></svg>

<svg xmlns="http://www.w3.org/2000/svg" width="24" height="24" viewBox="0 0 24 24">
  <path id="Colore_riempimento_1" fill="#44739e" data-name="Colore riempimento 1" class="cls-1" d="m 13.915,2.054 a 9.59,9.59 0 0 0 -2.862,0.85 2.115,2.115 0 0 0 -1.167,1.9 v 1.448 a 2.114,2.114 0 0 0 1.167,1.9 9.553,9.553 0 0 0 3.282,0.929 V 12.8 a 0.436,0.436 0 0 0 0.436,0.436 h 0.52 v 4.485 c 0,0.514 1.147,0.585 1.177,0.036 v -4.526 h 0.556 A 0.436,0.436 0 0 0 17.46,12.795 V 7.489 A 3.539,3.539 0 0 0 13.915,2.054 Z m -1.05,4.129 A 0.452,0.452 0 0 1 12.673,6.554 0.6,0.6 0 0 1 11.688,6.098 V 5 a 0.6,0.6 0 0 1 0.985,-0.456 0.452,0.452 0 0 1 0.192,0.371 z m 2.4,-0.048 h -0.343 a 0.6,0.6 0 0 1 -0.455,-0.986 0.449,0.449 0 0 1 0.37,-0.191 h 0.343 a 0.6,0.6 0 0 1 0.455,0.986 0.45,0.45 0 0 1 -0.369,0.191 z m 1.018,5.692 a 0.228,0.228 0 0 1 -0.228,0.227 h -0.3 a 0.239,0.239 0 0 1 -0.24,-0.24 V 8.933 A 3.629,3.629 0 0 0 16.287,8.596 Z M 12.947,9.294 A 9.593,9.593 0 0 0 10.085,8.443 3.539,3.539 0 0 0 6.54,13.878 v 5.306 a 0.436,0.436 0 0 0 0.436,0.436 h 0.556 v 1.97 c 0.03,0.548 1.177,0.537 1.177,0.024 V 19.62 h 0.52 a 0.436,0.436 0 0 0 0.436,-0.436 v -3.713 a 9.569,9.569 0 0 0 3.282,-0.928 2.117,2.117 0 0 0 1.167,-1.9 V 11.2 A 2.114,2.114 0 0 0 12.947,9.294 Z M 8.488,18.2 a 0.24,0.24 0 0 1 -0.24,0.241 h -0.3 A 0.228,0.228 0 0 1 7.72,18.213 v -3.228 a 3.531,3.531 0 0 0 0.772,0.337 z M 9.077,12.521 H 8.734 A 0.448,0.448 0 0 1 8.364,12.33 0.6,0.6 0 0 1 8.819,11.345 h 0.343 a 0.449,0.449 0 0 1 0.37,0.191 0.6,0.6 0 0 1 -0.455,0.988 z m 3.235,-0.037 A 0.6,0.6 0 0 1 11.327,12.94 0.45,0.45 0 0 1 11.135,12.57 V 11.3 a 0.45,0.45 0 0 1 0.192,-0.37 0.6,0.6 0 0 1 0.985,0.455 z"/>
</svg>
